X: 39685
T: Tenpenny Piece, The
R: slip jig
M: 9/8
K: Eminor
gfg edB edB|gfg edB d/e/dB|~g3 edB edB|ABA AB/c/d ebf|
gfg edB edB|gfg edB d/e/dB|ge/f/g edB edB|[A3A3] AB/c/d edc||
BAB G/A/GE G/A/GE|BAB GED GAc|BAB GEE GEB,|FDD DE/F/G Aed|
BAB (3GAG E (3GAG E|BAB GED GAc|BAB eBB GEE|DED DE/F/G Abf||

